svgs/duotone/arrows-left-right.svg

<svg xmlns="http://www.w3.org/2000/svg" viewBox="0 0 512 512"><!-- Font Awesome Pro 6.0.0-alpha2 by @fontawesome - https://fontawesome.com License - https://fontawesome.com/license (Commercial License) --><defs><style>.fa-secondary{opacity:.4}</style></defs><path d="M361.375 182.625C348.875 170.125 348.875 149.875 361.375 137.375C367.625 131.125 375.812 128 384 128S400.375 131.125 406.625 137.375L502.625 233.375C515.125 245.875 515.125 266.125 502.625 278.625L406.625 374.625C394.125 387.125 373.875 387.125 361.375 374.625S348.875 341.875 361.375 329.375L402.75 288H256V224H402.75L361.375 182.625Z" class="fa-secondary"/><path d="M150.625 329.375C163.125 341.875 163.125 362.125 150.625 374.625C144.375 380.875 136.187 384 128 384S111.625 380.875 105.375 374.625L9.375 278.625C-3.125 266.125 -3.125 245.875 9.375 233.375L105.375 137.375C117.875 124.875 138.125 124.875 150.625 137.375S163.125 170.125 150.625 182.625L109.25 224H256V288H109.25L150.625 329.375Z" class="fa-primary"/></svg>

<svg xmlns="http://www.w3.org/2000/svg" viewBox="0 0 512 512"><!--! Font Awesome Pro 6.3.0 by @fontawesome - https://fontawesome.com License - https://fontawesome.com/license (Commercial License) Copyright 2023 Fonticons, Inc. --><defs><style>.fa-secondary{opacity:.4}</style></defs><path class="fa-primary" d="M150.6 329.4c12.5 12.5 12.5 32.75 0 45.25C144.4 380.9 136.2 384 128 384s-16.38-3.125-22.62-9.375l-96-96c-12.5-12.5-12.5-32.75 0-45.25l96-96c12.5-12.5 32.75-12.5 45.25 0s12.5 32.75 0 45.25L109.3 224H256v64H109.3L150.6 329.4z"/><path class="fa-secondary" d="M361.4 182.6c-12.5-12.5-12.5-32.75 0-45.25C367.6 131.1 375.8 128 384 128s16.38 3.125 22.62 9.375l96 96c12.5 12.5 12.5 32.75 0 45.25l-96 96c-12.5 12.5-32.75 12.5-45.25 0s-12.5-32.75 0-45.25L402.8 288H256V224h146.8L361.4 182.6z"/></svg>
